icons/outline/cube-3d-sphere-off.svg

<!--
tags: [printing, vector, shape]
unicode: "f3b5"
version: "1.94"
-->
<svg
  xmlns="http://www.w3.org/2000/svg"
  width="24"
  height="24"
  viewBox="0 0 24 24"
  fill="none"
  stroke="currentColor"
  stroke-width="2"
  stroke-linecap="round"
  stroke-linejoin="round"
>
  <path d="M6 17.6l-2 -1.1v-2.5m0 -4v-2.5l2 -1.1m4 -2.3l2 -1.1l2 1.1m4 2.3l2 1.1v2.5m0 4v2m-6 3.9l-2 1.1l-2 -1.1m8 -11.3l2 -1.1m-8 4.5v2.5m0 4v2.5m0 -9l-2 -1.12m-4 -2.28l-2 -1.1m-1 -4.5l18 18" />
</svg>

<!--
tags: [printing, vector, shape]
unicode: "f3b5"
version: "1.94"
-->
<svg
  xmlns="http://www.w3.org/2000/svg"
  width="24"
  height="24"
  viewBox="0 0 24 24"
  fill="none"
  stroke="currentColor"
  stroke-width="2"
  stroke-linecap="round"
  stroke-linejoin="round"
>
    <path d="M6 17.6l-2 -1.1v-2.5M4 10v-2.5l2 -1.1M10 4.1l2 -1.1l2 1.1M18 6.4l2 1.1v2.5M20 14v2M14 19.9l-2 1.1l-2 -1.1M18 8.6l2 -1.1M12 12v2.5M12 18.5v2.5M12 12l-2 -1.12M6 8.6l-2 -1.1M3 3l18 18" />
</svg>
